X: 1
T: Concertina, The
M: 4/4
L: 1/8
R: reel
K: Dmaj
|:A2FA BAFA|A2FA BAFA|B2cA B2cA|B2cA BAFA|
A2FA BAFA|A2FA BAFA|FABc d2dB|AFEF D4:|
|:Ad d2 Ad d2|AddA BAFA|B2cA B2cA|B2cA BAFA|
Ad d2 Ad d2|AddA BAFA|FABc d2dB|AFEF D4:|
